dist/flags/l/882.svg

<svg width="32" height="24" viewBox="0 0 32 24" fill="none" xmlns="http://www.w3.org/2000/svg">
<mask id="mask0" mask-type="alpha" maskUnits="userSpaceOnUse" x="0" y="0" width="32" height="24">
<rect width="32" height="24" fill="white"/>
</mask>
<g mask="url(#mask0)">
<path fill-rule="evenodd" clip-rule="evenodd" d="M0 0V24H32V0H0Z" fill="#C51918"/>
<mask id="mask1" mask-type="alpha" maskUnits="userSpaceOnUse" x="0" y="0" width="32" height="24">
<path fill-rule="evenodd" clip-rule="evenodd" d="M0 0V24H32V0H0Z" fill="white"/>
</mask>
<g mask="url(#mask1)">
<path fill-rule="evenodd" clip-rule="evenodd" d="M0 0V14H16V0H0Z" fill="#2E42A5"/>
<path fill-rule="evenodd" clip-rule="evenodd" d="M3.56564 7.77201L2.50559 8.41196L2.74738 7.16317L1.86462 6.22857L3.05993 6.17803L3.56564 5.01196L4.07135 6.17803H5.26462L4.3839 7.16317L4.64905 8.41196L3.56564 7.77201Z" fill="#FEFFFF"/>
<path fill-rule="evenodd" clip-rule="evenodd" d="M11.5656 7.77201L10.5056 8.41196L10.7474 7.16317L9.86462 6.22857L11.0599 6.17803L11.5656 5.01196L12.0714 6.17803H13.2646L12.3839 7.16317L12.649 8.41196L11.5656 7.77201Z" fill="#FEFFFF"/>
<path fill-rule="evenodd" clip-rule="evenodd" d="M7.46558 4.13798L6.46789 4.74028L6.69546 3.56495L5.86462 2.68532L6.98962 2.63776L7.46558 1.54028L7.94154 2.63776H9.06462L8.23571 3.56495L8.48526 4.74028L7.46558 4.13798Z" fill="#FEFFFF"/>
<path fill-rule="evenodd" clip-rule="evenodd" d="M8.54625 8.42532L7.9227 8.80176L8.06492 8.06717L7.54565 7.51741L8.24878 7.48768L8.54625 6.80176L8.84373 7.48768H9.54565L9.02758 8.06717L9.18355 8.80176L8.54625 8.42532Z" fill="#FEFFFF"/>
<path fill-rule="evenodd" clip-rule="evenodd" d="M7.40876 12.8282L5.91222 13.7316L6.25357 11.9686L5.00732 10.6492L6.69482 10.5779L7.40876 8.93164L8.1227 10.5779H9.80732L8.56395 11.9686L8.93828 13.7316L7.40876 12.8282Z" fill="#FEFFFF"/>
</g>
</g>
</svg>

<svg width="32" height="24" fill="none" xmlns="http://www.w3.org/2000/svg">
  <mask id="a" maskUnits="userSpaceOnUse" x="0" y="0" width="32" height="24">
    <path fill="#fff" d="M0 0h32v24H0z"/>
  </mask>
  <g mask="url(#a)">
    <path fill-rule="evenodd" clip-rule="evenodd" d="M0 0v24h32V0H0z" fill="#C51918"/>
    <mask id="b" maskUnits="userSpaceOnUse" x="0" y="0" width="32" height="24">
      <path fill-rule="evenodd" clip-rule="evenodd" d="M0 0v24h32V0H0z" fill="#fff"/>
    </mask>
    <g mask="url(#b)" fill-rule="evenodd" clip-rule="evenodd">
      <path d="M0 0v14h16V0H0z" fill="#2E42A5"/>
      <path d="M3.566 7.772l-1.06.64.241-1.249-.882-.934 1.195-.051.506-1.166.505 1.166h1.194l-.881.985.265 1.249-1.083-.64zm8 0l-1.06.64.241-1.249-.882-.934 1.195-.051.506-1.166.505 1.166h1.194l-.881.985.265 1.249-1.083-.64zm-4.1-3.634l-.998.602.227-1.175-.83-.88 1.125-.047.476-1.098.476 1.098h1.123l-.83.927.25 1.175-1.02-.602zm1.08 4.287l-.623.377.142-.735-.52-.55.704-.03.297-.685.298.686h.702l-.518.58.156.734-.638-.377zm-1.137 4.403l-1.497.904.342-1.763-1.247-1.32 1.688-.071.714-1.646.714 1.646h1.684l-1.243 1.39.374 1.764-1.53-.904z" fill="#FEFFFF"/>
    </g>
  </g>
</svg>
